img/decore/news__decore_1.svg

<svg width="199" height="175" viewBox="0 0 199 175" fill="none" xmlns="http://www.w3.org/2000/svg">
<path id="Vector" d="M85.5201 61.6082C82.9844 57.6046 81.1396 54.6663 79.2804 51.7635C71.8155 40.017 64.2649 28.2773 56.9144 16.4528C55.148 13.6288 53.6968 10.4352 52.9529 7.23718C52.5566 5.3385 53.3125 2.53838 54.6227 1.24527C55.3888 0.47788 58.8027 1.27534 60.1223 2.42862C63.368 5.18681 66.3199 8.36469 68.957 11.7054C77.1462 22.1709 85.1421 32.8068 93.5302 43.8079C97.1725 37.6594 100.658 31.4889 104.471 25.5336C107.41 20.923 110.706 16.4564 114.066 12.1398C116.236 9.33082 119.234 7.35226 122.839 9.4271C126.586 11.5595 126.607 15.2113 125.114 18.7076C120.734 29.1541 116.154 39.4785 111.703 49.8962C110.627 52.3599 109.693 54.8812 108.687 57.3737C108.936 57.8881 113.498 56.2507 115.687 55.3532C134.395 47.664 153.074 40.0461 171.868 32.5569C174.492 31.5041 177.501 30.9378 180.331 30.92C181.832 30.9043 184.101 32.2751 184.585 33.5465C185.068 34.8178 184.27 37.3111 183.16 38.3126C181.056 40.2374 178.466 41.7183 175.855 42.9423C158.611 51.2218 141.324 59.4014 124.058 67.6309C122.163 68.5224 120.239 69.4851 117.399 70.8652C126.654 73.8529 135.044 76.4095 143.32 79.2508C159.965 85.0124 176.588 90.9309 193.189 96.7993C194.203 97.1669 195.274 97.5989 196.059 98.1225C201.19 101.558 198.435 106.947 193.936 105.96C188.436 104.777 182.814 103.792 177.387 102.224C157.97 96.5449 138.639 90.6519 119.265 84.8657C118.857 84.7429 118.443 84.7414 117.136 84.5866C120.653 90.6837 123.908 96.302 127.176 101.885C133.321 112.478 139.617 123.007 145.562 133.686C147.143 136.559 148.193 139.922 148.63 143.162C149.116 146.587 146.476 148.296 143.707 146.31C140.347 143.836 137.109 140.75 134.808 137.297C123.566 120.508 112.668 103.484 101.655 86.5394C100.429 84.6376 99.2042 82.7358 97.4378 79.9119C93.642 87.7786 90.2837 94.8697 86.7826 101.903C76.351 122.825 65.9194 143.748 55.4164 164.641C54.24 166.94 52.7992 169.174 51.1661 171.165C48.9383 173.91 45.9634 175.111 42.6011 173.465C39.4531 171.906 38.4372 168.97 39.1012 165.678C39.7434 162.542 40.6643 159.436 41.8921 156.495C49.8907 137.282 57.9821 118.148 66.0522 98.9647C66.6624 97.5548 67.1869 96.1517 68.1779 93.6949C65.9038 94.5992 64.3449 95.171 62.793 95.8284C45.4719 103.166 28.1364 110.54 10.7795 117.863C8.82712 118.69 6.69625 119.445 4.59534 119.509C3.16615 119.553 1.03859 118.654 0.412044 117.531C-0.214505 116.409 0.418691 114.222 0.92138 112.976C2.53695 109.073 5.34693 108.178 8.1081 106.684C24.3604 97.8799 40.748 89.2548 57.1784 80.7296C63.1082 77.6567 69.2657 75.0481 76.6538 71.6526C66.5343 68.8541 57.7142 66.5385 49.0091 63.938C40.6396 61.4314 32.385 58.64 24.0516 55.9411C23.1661 55.6667 22.3311 55.1643 21.5888 54.7407C17.6845 52.5862 21.7572 49.1781 23.0501 49.3685C31.958 50.6432 40.9086 52.0179 49.7225 53.8342C60.1432 56.0918 83.0052 61.4632 85.5201 61.6082Z" fill="black"/>
</svg>

<svg width="199" height="175" fill="none" xmlns="http://www.w3.org/2000/svg"><path d="M85.52 61.608c-2.536-4.003-4.38-6.942-6.24-9.844-7.465-11.747-15.015-23.487-22.366-35.311-1.766-2.824-3.217-6.018-3.961-9.216-.396-1.899.36-4.699 1.67-5.992.766-.767 4.18.03 5.5 1.184 3.245 2.758 6.197 5.936 8.834 9.276 8.19 10.466 16.185 21.102 24.573 32.103 3.642-6.149 7.128-12.32 10.941-18.274 2.939-4.611 6.235-9.078 9.595-13.394 2.17-2.81 5.168-4.788 8.773-2.713 3.747 2.133 3.768 5.784 2.275 9.28-4.38 10.447-8.96 20.771-13.411 31.19-1.076 2.463-2.01 4.984-3.016 7.477.249.514 4.811-1.123 7-2.02 18.708-7.69 37.387-15.308 56.181-22.797 2.624-1.053 5.633-1.62 8.463-1.637 1.501-.016 3.77 1.355 4.254 2.627.483 1.27-.315 3.764-1.425 4.766-2.104 1.924-4.694 3.405-7.305 4.63-17.244 8.279-34.531 16.458-51.797 24.688-1.895.891-3.819 1.854-6.659 3.234 9.255 2.988 17.645 5.544 25.921 8.386 16.645 5.761 33.268 11.68 49.869 17.548 1.014.368 2.085.8 2.87 1.323 5.131 3.436 2.376 8.825-2.123 7.838-5.5-1.183-11.122-2.168-16.549-3.736-19.417-5.68-38.748-11.572-58.122-17.358-.408-.123-.822-.125-2.129-.28a3120.61 3120.61 0 0010.04 17.299c6.145 10.593 12.441 21.122 18.386 31.801 1.581 2.873 2.631 6.236 3.068 9.476.486 3.425-2.154 5.134-4.923 3.148-3.36-2.474-6.598-5.56-8.899-9.013-11.242-16.789-22.14-33.813-33.153-50.758a520.56 520.56 0 01-4.217-6.627c-3.796 7.867-7.154 14.958-10.655 21.991-10.432 20.922-20.864 41.845-31.367 62.738a36.795 36.795 0 01-4.25 6.524c-2.228 2.745-5.203 3.946-8.565 2.3-3.148-1.559-4.164-4.495-3.5-7.787.642-3.136 1.563-6.242 2.791-9.183 7.999-19.213 16.09-38.347 24.16-57.53.61-1.41 1.135-2.813 2.126-5.27-2.274.904-3.833 1.476-5.385 2.133-17.321 7.338-34.657 14.712-52.014 22.035-1.952.827-4.083 1.582-6.184 1.646-1.429.044-3.556-.855-4.183-1.978-.627-1.122.007-3.309.51-4.555 1.615-3.903 4.425-4.798 7.186-6.292 16.252-8.804 32.64-17.43 49.07-25.954 5.93-3.073 12.088-5.682 19.476-9.077-10.12-2.799-18.94-5.115-27.645-7.715-8.37-2.507-16.624-5.298-24.957-7.997-.886-.274-1.72-.777-2.463-1.2-3.904-2.155.168-5.563 1.461-5.373 8.908 1.275 17.859 2.65 26.672 4.466 10.421 2.258 33.283 7.63 35.798 7.774z" fill="#000"/></svg>
